X:1
T:ADELLE
T:ADELLE
T:WALTZ
T:By LIONEL BELASCO
T:Copyright 1924 by Jack Mills Inc
T:Copyright 1924 by Jack Mills Inc
T:Copyright 1924 by Jack Mills Inc
C:By LIONEL BELASCO
Z:Copyright 1924 by Jack Mills Inc
%%score { 1 | 2 }
L:1/8
Q:1/4=140
M:3/4
K:G
V:1 treble nm="Piano" snm="Pno."
V:2 bass 
V:1
"^Valse moderato"!f! ([GB]g) (gf) (fe) | (ed) (!tenuto!d.c).c.c | (!>!^ABefgb) | (!>!c'bagf)g | %4
!mf! e2 .[EGB]2 .[EGB]2 | z2 .[^DAB]2 .[DAB]2 |:!mf!!f!"_-" ([GB]g) (gf) (fe) | %7
 (ed) (!tenuto!d.c).c.c | (!>!cBB^ABc | !tenuto![GB]4) .[GB]2 | (BAA^GAB | [^DA]6) | ([DA]GFGAG | %13
 FB !>!B,4) | ([GB]g) (gf) (fe) | (ed) (!tenuto!d.c).c.c | (!>!cBB^ABc | !tenuto![GB]4) .[GB]2 | %18
 (B^c=de fF) |{/^c} (B^A) (!courtesy!=d^c) (gf) | (BF)(dB)(fd) |1 %21
 !>![Bb] z !>![EAB]!>!B !>![FAB]2 :|2 !>![Bb].B.B.B.B.B |:!mf!!f!"_-" (3!>!cdc .B.B (3!>!efe | %24
 (^dB) (3!>!gag (fB) | (3!>!c'd'c' (b^a b2) | z!8va(! (b'g'e'!8va)!bg | (3!>!g)ag (f^e f2) | %28
 z!8va(! a'f'!8va)!^d'=c'b | (3!>!aba (gfge) | (3!>!=fgf .e.e (3!>!a(ba | ^ge) (3!>!c'=d'c' .b.b | %32
!8va(! (3!>!=f'g'f' e'^d' e'2 | z (^d'^f'e'c'a!8va)! | c'bgecB) | (!>!e^d) (!>!gf) (!>!c'b) | %36
!<(! (3!>!eBe (3!>!geg (3!>!bgb!<)! |1!<(! !>![ge'].B.B!<)!.B.B.B :|2 !>![ge'] || %39
[K:C][M:3/4]"^TRIO" !>![Ge]2 (!>![Ge]2 B) |: ((!tenuto![Fd]4 [Ec]2- | %41
 [Ec])) !>![Ec]2 (!>![Ec]2 ^G) | ((!tenuto![DB]4 [CA]2- | [CA])) !>![df]2 !>![Bd]2 .[Ac] | %44
 ((!tenuto![Ac]4 [GB]2- | [GB] !>![Fd]2)) !>![FA]2 .[GB] | ((!tenuto![FA]4 [EG]2- | %47
 [EG])) !>![ce]2 !>![ce]2 [df] | ((!tenuto![^cg]4 [G^c]2- | [Gc])) !>![E^c]2 !>![Fd]2 .[Ge] | %50
 ((!tenuto![Ge]4 [Fd]2- | [Fd])) !>![Fd]2 !>![Fd]2 .[Ge] | !tenuto![^Gf]4 .[D^G]2- | %53
 [DG] !>![^GB]2 !>![Ac]2 [Bd] | ((!tenuto![Bd]4 [Ac]2- | [Ac]))!<(! !>![Ac]2 !>![Ac]2 .[Bd]!<)! | %56
 ((!tenuto![ce]4 [Ac]2- | [Ac])) !>![Ac]2 !>![Ac]2 .[Bd] | ((!tenuto![ce]4 [Ac]2- | %59
 [Ac]))!>(! !>![Ac]2 !>![Ac]2 .[Bd]!>)! | %60
 !tenuto![ce]!<(! !tenuto![d=f]2 !tenuto![^d^f]!<)! !>![eg]2 | %61
 !tenuto![B,FG] !tenuto![CFA]2 !tenuto![^CF^A] ([DFB][FBe] | [EGc]2) ((^FG=AG |1 %63
!f! [Ec]))!<(! !>![Ge]2 (!>![Ge]2!<)! B) :|2 [Ec]!<(!.B.B.B.B!<)!.B || %65
[K:G]!ff! (3!>!cdc .B.B (3!>!efe | (^dB) (3!>!gag (fB) | (3!>!c'd'c' (b^a b2) | %68
 z!8va(! (b'g'e'!8va)!bg | (3!>!g)ag (f^e f2) | z!8va(! a'f'!8va)!^d'=c'b | (3!>!aba (gfge) | %72
 (3!>!=fgf .e.e (3!>!a(ba | ^ge) (3!>!c'=d'c' .b.b |!8va(! (3!>!=f'g'f' e'^d' e'2 | %75
 z (^d'^f'e'c'a!8va)! | c'bgecB) | (!>!e^d) (!>!gf) (!>!c'b) |!<(! (3!>!eBe (3!>!geg (3!>!bgb!<)! | %79
 !^![ge'] z z4 |] %80
V:2
 [E,,E,]2 [G,B,E]2 [G,B,E]2 | A,,2 [A,CE]2 [A,CE]2 | [G,,G,]2 [G,B,E]2 [G,B,E]2 | %3
 [F,,F,]2 [A,B,^D]2 [B,,,B,,]2 | [E,,E,]2 z2 z2 | [B,,,B,,]2 z2 z2 |: [E,,E,]2 [G,B,E]2 [G,B,E]2 | %7
 A,,2 [A,CE]2 [A,CE]2 | G,,2 [G,B,E]2 [G,B,E]2 | E,,2 [G,B,E]2 [G,B,E]2 | F,,2 [A,B,^D]2 [A,B,D]2 | %11
 B,,,2 [F,A,B,]2 [F,A,B,]2 | E,,2 [G,B,E]2 [G,B,E]2 | ^D,,2 ([F,A,]2 B,,2) | %14
 [E,,E,]2 [G,B,E]2 [G,B,E]2 | A,,2 [A,CE]2 [A,CE]2 | G,,2 [G,B,E]2 [G,B,E]2 | %17
 E,,2 [G,B,E]2 [G,B,E]2 | F,,2 [F,B,!courtesy!=D]2 [F,B,D]2 | F,,2 [F,^A,E]2 [F,A,E]2 | %20
 B,,2 [F,B,D]2 [F,B,D]2 |1 [B,,,B,,] z !>![^C,,^C,]2 !>![^D,,^D,]2 :|2 %22
 !arpeggio!!>![B,,F,D] z z2 z2 |: [F,,F,]2 [F,A,B,]2 [F,A,B,]2 | [B,,,B,,]2 [A,B,^D]2 [A,B,D]2 | %25
 [E,,E,]2 [G,B,E]2 [G,B,E]2 | [E,,E,]2 [G,B,E]2 [G,B,E]2 | [^D,,^D,]2 [A,B,^D]2 [A,B,D]2 | %28
 !>![F,,F,]2 [A,B,^D]2 [A,B,D]2 | [E,,E,]2 (([G,B,E]2 [B,EG]2)) | %30
 ((!>![A,C=F]2 [G,B,E]2)) ((!>![=F,A,^D]2 | [E,^G,=D]2)) ((!>![^F,A,^D]2 [!courtesy!^G,B,E]2)) | %32
 (([A,C=F]2 [B,E=G]2)) [B,EG]2 | [C,C]2 [CEA]2 [CEG]2 | [B,,B,]2 [B,EG]2 [B,EG]2 | %35
 [F,,F,]2 [A,B,^D]2 [B,,,B,,]2 | [E,,E,]2 !>![B,,B,]2 !>![G,,G,]2 |1 !>![E,,E,] z z2 z2 :|2 z || %39
[K:C][M:3/4] z z2 z2 |: [C,,C,]2 !tenuto!G,2!8vb(! G,,,2!8vb)! | [C,,C,]2 !tenuto!G,2 .E,,2 | %42
 .F,,2 !tenuto!F,2 .F,,2 | .D,2 !tenuto!G,2 .G,,2 | .D,2 !tenuto!G,2 .G,,2 | %45
 .D,2 !tenuto!G,2 .G,,2 | .C,2 !tenuto!G,2 .G,,2 | .C,2 !tenuto!G,2 .G,,2 | %48
 .E,2 !tenuto!A,2 .A,,2 | .E,2 !tenuto!A,2 .A,,2 | .D,2 !tenuto!A,2 .A,,2 | D,2 !tenuto!A,2 .C,2 | %52
 .C,2 !tenuto!E,2 E,,2 | .B,,2 !tenuto!A,2 E,,2 | .A,,2 !tenuto!E,2 .E,,2 | %55
 .A,,2 !tenuto!E,2 .E,,2 | A,,2 .[E,A,C]2 !>!A,,2 | !>!=G,,2 !tenuto![E,A,C]2 !>!G,,2 | %58
 !>!^F,,2 !tenuto![^F,A,E]2 !>!F,,2 | !>!D,,2 [^F,B,]2 D,,2 | G,,2 [G,CE]2 [G,CE]2 | G,,2 G,2 G,2 | %62
 C,2 (^F,G,A,G, |1 C) z z2 z2 :|2 !>!C, z z2 z2 ||[K:G] [F,,F,]2 [F,A,B,]2 [F,A,B,]2 | %66
 [B,,,B,,]2 [A,B,^D]2 [A,B,D]2 | [E,,E,]2 [G,B,E]2 [G,B,E]2 | [E,,E,]2 [G,B,E]2 [G,B,E]2 | %69
 [^D,,^D,]2 [A,B,^D]2 [A,B,D]2 | !>![F,,F,]2 [A,B,^D]2 [A,B,D]2 | [E,,E,]2 (([G,B,E]2 [B,EG]2)) | %72
 ((!>![A,C=F]2 [G,B,E]2)) ((!>![=F,A,^D]2 | [E,^G,=D]2)) ((!>![^F,A,^D]2 [!courtesy!^G,B,E]2)) | %74
 (([A,C=F]2 [B,E=G]2)) [B,EG]2 | [C,C]2 [CEA]2 [CEG]2 | [B,,B,]2 [B,EG]2 [B,EG]2 | %77
 [F,,F,]2 [A,B,^D]2 [B,,,B,,]2 | [E,,E,]2 !>![B,,B,]2 !>![G,,G,]2 | !^![E,,E,] z z4 |] %80

